<map version="1.4" tiledversion="1.4.2" orientation="orthogonal" renderorder="right-down" compressionlevel="0" width="42" height="32" tilewidth="32" tileheight="32" infinite="0" backgroundcolor="#696A79" nextlayerid="6" nextobjectid="1"><tileset firstgid="1" name="Tileset_32" tilewidth="32" tileheight="32" tilecount="121" columns="11" objectalignment="topleft" margin="0" spacing="0"><image source="..\..\tileset_32.png" width="352" height="352"/></tileset><tileset firstgid="122" name="Collision" tilewidth="32" tileheight="32" tilecount="1" columns="1" objectalignment="topleft"><image source="Collision.intgrid.png" width="32" height="32"/></tileset><layer id="1" name="Collision" width="42" height="32" opacity="1"><data encoding="csv">122,122,122,122,122,122,122,122,122,122,122,122,122,122,122,122,122,122,122,122,122,122,122,122,122,122,122,122,122,122,122,122,122,122,122,122,122,122,122,122,122,122,122,0,0,0,0,0,0,0,0,0,0,0,0,0,0,0,0,0,0,0,0,0,0,0,0,0,0,0,0,0,0,0,0,0,0,0,0,0,0,0,0,122,122,0,0,0,0,0,0,0,0,0,0,0,0,0,0,0,0,0,0,0,0,0,0,0,0,0,0,0,0,0,0,0,0,0,0,0,0,0,0,0,0,122,122,0,0,0,0,0,0,0,0,0,0,0,0,0,0,0,0,0,0,0,0,0,0,0,0,0,0,0,0,0,0,0,0,0,0,0,0,0,0,0,0,122,122,0,0,0,0,0,0,0,0,0,0,0,0,0,0,0,0,0,0,0,0,0,0,0,0,0,0,0,0,0,0,0,0,0,0,0,0,0,0,0,0,122,122,0,0,0,0,0,0,0,0,0,0,0,0,0,0,0,0,0,0,0,0,0,0,0,0,0,0,0,0,0,0,0,0,0,0,0,0,0,0,0,0,122,122,0,0,0,0,0,0,0,0,0,0,0,0,0,0,0,0,0,122,122,122,122,122,0,0,0,0,0,0,0,0,122,122,0,0,0,0,0,0,0,0,122,122,0,0,0,0,0,0,0,0,0,0,0,0,0,0,0,0,0,122,122,122,122,122,0,0,0,0,0,0,0,0,122,122,0,0,0,0,0,0,0,0,122,122,0,0,0,0,0,0,0,0,0,0,0,0,0,0,0,0,0,122,122,122,122,122,0,0,0,0,0,0,0,0,0,0,0,0,0,0,0,0,0,0,122,122,0,0,0,0,0,0,0,0,0,0,0,0,0,0,0,0,0,0,0,0,0,0,0,0,0,0,0,0,0,0,0,0,0,0,0,0,0,0,0,0,122,122,0,0,0,0,0,0,0,0,0,0,0,0,0,0,0,0,0,0,0,0,0,0,0,0,0,0,0,0,0,0,0,0,0,0,0,0,0,0,0,0,122,122,0,0,0,0,0,0,0,0,0,0,0,0,0,0,0,0,0,0,0,0,0,0,0,0,0,0,0,0,0,0,0,0,0,0,0,0,0,0,0,0,122,122,0,0,0,0,0,0,0,0,0,0,0,0,0,0,0,0,0,0,0,0,0,0,0,0,0,0,0,0,0,0,0,0,0,0,0,0,0,0,0,0,122,122,0,0,0,0,0,0,122,122,122,122,122,0,0,0,0,0,0,0,0,0,0,0,0,0,0,0,0,0,0,122,122,122,122,122,0,0,0,0,0,0,122,122,0,0,0,0,0,0,122,122,122,122,122,0,0,0,0,0,0,0,0,0,0,0,0,0,0,0,0,0,0,122,122,122,122,122,0,0,0,0,0,0,122,122,0,0,0,0,0,0,122,122,122,122,122,0,0,0,0,0,0,0,0,0,0,0,0,0,0,0,0,0,0,122,122,122,122,122,0,0,0,0,0,0,122,122,0,0,0,0,0,0,122,122,122,122,122,0,0,0,0,0,0,0,0,0,0,0,0,0,0,0,0,0,0,122,122,122,122,122,0,0,0,0,0,0,122,122,0,0,0,0,0,0,122,122,122,122,122,0,0,0,0,0,0,0,0,0,0,0,0,0,0,0,0,0,0,122,122,122,122,122,0,0,0,0,0,0,122,122,0,0,0,0,0,0,0,0,0,0,0,0,0,0,0,0,0,0,0,0,0,0,0,0,0,0,0,0,0,0,0,0,0,0,0,0,0,0,0,0,122,122,0,0,0,0,0,0,0,0,0,0,0,0,0,0,0,0,0,0,0,0,0,0,0,0,0,0,0,0,0,0,0,0,0,0,0,0,0,0,0,0,122,122,0,0,0,0,0,0,0,0,0,0,0,0,0,0,0,0,0,0,0,0,0,0,0,0,0,0,0,0,0,0,0,0,0,0,0,0,0,0,0,0,122,122,0,0,0,0,0,0,0,0,0,0,0,0,0,0,0,0,0,0,0,0,0,0,0,0,0,0,0,0,0,0,0,0,0,0,0,0,0,0,0,0,122,122,0,0,0,0,0,0,0,0,0,0,0,0,0,0,0,0,0,122,122,122,122,122,0,0,0,0,0,0,0,0,0,0,0,0,0,0,0,0,0,0,122,122,0,0,0,0,0,0,0,0,122,122,0,0,0,0,0,0,0,122,122,122,122,122,0,0,0,0,0,0,0,0,0,0,0,0,0,0,0,0,0,0,122,122,0,0,0,0,0,0,0,0,122,122,0,0,0,0,0,0,0,122,122,122,122,122,0,0,0,0,0,0,0,0,0,0,0,0,0,0,0,0,0,0,122,122,0,0,0,0,0,0,0,0,0,0,0,0,0,0,0,0,0,0,0,0,0,0,0,0,0,0,0,0,0,0,0,0,0,0,0,0,0,0,0,0,122,122,0,0,0,0,0,0,0,0,0,0,0,0,0,0,0,0,0,0,0,0,0,0,0,0,0,0,0,0,0,0,0,0,0,0,0,0,0,0,0,0,122,122,0,0,0,0,0,0,0,0,0,0,0,0,0,0,0,0,0,0,0,0,0,0,0,0,0,0,0,0,0,0,0,0,0,0,0,0,0,0,0,0,122,122,0,0,0,0,0,0,0,0,0,0,0,0,0,0,0,0,0,0,0,0,0,0,0,0,0,0,0,0,0,0,0,0,0,0,0,0,0,0,0,0,122,122,0,0,0,0,0,0,0,0,0,0,0,0,0,0,0,0,0,0,0,0,0,0,0,0,0,0,0,0,0,0,0,0,0,0,0,0,0,0,0,0,122,122,0,0,0,0,0,0,0,0,0,0,0,0,0,0,0,0,0,0,0,0,0,0,0,0,0,0,0,0,0,0,0,0,0,0,0,0,0,0,0,0,122,122,122,122,122,122,122,122,122,122,122,122,122,122,122,122,122,122,122,122,122,122,122,122,122,122,122,122,122,122,122,122,122,122,122,122,122,122,122,122,122,122,122</data></layer><layer id="2" name="Floor" width="42" height="32" opacity="1"><data encoding="csv">11,0,0,0,0,0,0,0,0,0,0,0,0,0,0,0,0,0,0,0,0,0,0,0,0,0,0,0,0,0,0,0,0,0,0,0,0,0,0,0,0,0,11,13,13,13,13,13,13,13,13,13,13,13,13,13,13,13,13,13,13,13,13,13,13,13,13,13,13,13,13,13,13,13,13,13,13,13,13,13,13,13,13,0,11,69,68,67,67,68,67,67,67,68,67,69,68,67,69,69,68,67,68,67,69,69,69,68,68,68,68,69,69,67,67,67,68,68,68,69,68,68,68,69,69,0,11,67,68,67,68,68,69,67,68,68,68,67,69,69,69,68,69,67,69,68,69,68,68,69,69,69,69,69,69,69,68,67,69,67,68,67,69,67,69,69,69,0,11,67,68,67,69,67,68,69,69,69,67,68,67,69,68,68,67,67,68,67,68,69,68,68,67,67,67,69,67,68,68,67,68,68,69,68,69,68,67,68,68,0,11,69,69,67,69,67,67,69,67,67,68,68,68,68,69,67,67,67,68,68,68,69,67,69,69,67,69,68,69,67,68,69,67,67,67,68,68,68,68,67,69,0,11,67,67,69,69,68,69,69,69,69,67,68,67,69,68,67,68,68,67,69,69,67,68,67,67,68,68,67,69,67,68,67,69,69,68,69,69,68,69,69,68,0,11,67,69,67,68,69,67,69,69,69,69,68,68,69,69,68,67,69,69,68,68,69,69,67,68,68,69,68,68,68,69,69,68,67,68,67,68,69,67,68,69,0,11,69,68,69,69,68,67,68,68,67,67,67,68,68,69,69,67,67,68,68,67,68,69,68,69,69,67,68,69,68,68,67,69,68,68,69,67,67,67,67,67,0,11,67,68,67,68,69,69,69,67,67,67,67,68,68,69,69,68,68,68,68,69,67,67,69,68,68,69,68,68,67,69,67,67,68,69,67,69,69,68,67,69,0,11,69,67,68,68,68,69,69,69,68,68,67,68,69,67,69,68,67,68,69,67,67,67,67,67,69,67,67,69,69,68,67,69,67,69,67,67,68,67,69,68,0,11,69,68,68,69,67,67,67,67,67,67,67,68,69,67,69,67,68,67,69,69,69,69,69,67,67,67,67,67,68,67,69,67,67,69,67,69,67,67,68,69,0,11,67,67,67,67,67,68,69,69,69,67,69,69,68,69,68,68,67,68,69,68,68,67,67,68,67,69,69,69,69,67,69,67,69,69,69,68,67,69,69,68,0,11,69,68,67,68,69,69,68,67,69,69,68,69,69,67,69,68,67,69,68,68,68,68,68,68,69,69,68,67,67,67,69,68,69,68,68,67,69,67,68,67,0,11,69,67,69,68,67,67,69,67,68,69,68,68,67,68,69,69,68,68,67,67,67,69,68,68,68,69,68,67,69,68,69,69,69,69,69,69,67,68,69,67,0,11,69,69,68,67,68,68,67,67,69,68,67,69,67,68,69,67,68,69,69,69,69,69,67,67,69,68,67,67,69,67,69,69,68,67,67,67,67,69,69,69,0,11,67,67,67,69,68,68,67,68,69,69,68,68,67,69,68,68,67,69,69,69,67,67,68,68,69,67,69,67,68,68,69,67,69,68,68,67,69,68,69,67,0,11,67,68,67,69,67,67,69,69,68,68,69,67,69,68,67,68,68,67,69,69,69,67,67,69,68,69,67,67,69,69,67,69,68,68,68,69,68,67,68,68,0,11,69,68,68,67,67,67,67,68,69,69,69,67,68,67,69,67,67,67,67,67,67,67,68,68,68,67,68,69,68,67,67,67,68,69,69,68,68,69,68,68,0,11,67,68,68,69,69,69,69,67,68,67,68,67,68,67,68,67,68,69,69,68,68,68,67,68,69,67,68,67,67,67,69,69,67,69,69,67,67,69,67,67,0,11,69,67,68,68,68,68,68,68,68,69,68,68,68,68,68,67,69,68,69,69,69,67,69,69,69,68,69,69,67,69,67,67,68,67,69,67,68,69,68,68,0,11,68,69,69,68,67,69,69,68,68,67,67,67,69,67,68,68,68,69,68,68,69,68,67,68,68,68,69,69,69,69,67,69,69,67,68,68,68,69,68,69,0,11,69,68,67,68,69,68,69,68,68,68,69,68,67,68,67,68,68,68,67,68,68,68,67,69,67,69,69,68,69,67,67,67,67,67,68,68,69,67,68,69,0,11,67,69,68,68,69,68,69,68,68,67,68,67,68,69,68,67,67,67,67,67,68,67,67,67,69,69,67,68,67,67,68,68,67,69,69,69,69,68,67,67,0,11,67,69,68,67,67,69,68,67,67,69,67,68,67,69,68,67,67,67,67,67,67,69,68,69,67,69,68,68,67,68,68,67,67,69,69,67,67,67,67,69,0,11,67,68,69,69,67,69,68,68,69,69,69,67,67,69,67,68,67,67,68,68,67,68,68,69,68,67,68,69,67,67,69,69,69,68,68,67,67,69,68,67,0,11,68,69,69,67,67,68,68,69,69,67,67,69,69,69,67,67,68,69,69,67,69,69,67,68,69,67,68,67,69,67,69,69,68,67,67,68,68,67,67,67,0,11,67,67,67,68,68,67,68,67,67,68,67,69,69,67,68,67,69,68,68,68,69,68,67,69,69,68,68,69,68,68,67,69,68,67,69,69,68,67,67,68,0,11,68,68,67,69,68,69,68,67,69,68,68,68,69,68,67,68,67,69,69,68,69,68,68,68,67,67,68,68,68,67,69,67,68,69,68,67,69,69,67,67,0,11,69,69,67,67,69,69,67,69,69,67,68,68,68,67,67,68,69,69,67,68,67,67,68,69,69,67,68,69,68,69,68,68,67,69,69,68,68,69,67,68,0,11,69,68,67,67,69,68,69,69,67,67,68,67,67,67,68,69,69,69,67,67,68,69,69,69,69,68,67,68,69,68,67,68,69,69,69,68,69,69,67,69,0,11,0,0,0,0,0,0,0,0,0,0,0,0,0,0,0,0,0,0,0,0,0,0,0,0,0,0,0,0,0,0,0,0,0,0,0,0,0,0,0,0,0</data></layer><layer id="3" name="Obstacles" width="42" height="32" opacity="1"><data encoding="csv">0,0,0,0,0,0,0,0,0,0,0,0,0,0,0,0,0,0,0,0,0,0,0,0,0,0,0,0,0,0,0,0,0,0,0,0,0,0,0,0,0,0,0,0,0,0,0,0,0,0,0,0,0,0,0,0,0,0,0,0,0,0,0,0,0,0,0,0,0,0,0,0,0,0,0,0,0,0,0,0,0,0,0,0,0,0,0,0,0,0,0,0,0,0,0,0,0,0,0,0,0,0,0,0,0,0,0,0,0,0,0,0,0,0,0,0,0,0,0,0,0,0,0,0,0,0,0,0,0,0,0,0,0,0,0,0,0,0,0,0,0,0,0,0,0,0,0,0,0,0,0,0,0,0,0,0,0,0,0,0,0,0,0,0,0,0,0,0,0,0,0,0,0,0,0,0,0,0,0,0,0,0,0,0,0,0,0,0,0,0,0,0,0,0,0,0,0,0,0,0,0,0,0,0,0,0,0,0,0,0,0,0,0,0,0,0,0,0,0,0,0,0,0,0,0,0,0,0,0,0,0,0,0,0,0,0,0,0,0,0,0,0,0,0,0,0,0,0,0,0,0,0,0,0,0,0,0,0,0,0,0,0,0,0,0,0,0,0,0,0,64,54,65,65,53,0,0,0,0,0,0,0,0,53,44,0,0,0,0,0,0,0,0,0,0,0,0,0,0,0,0,0,0,0,0,0,0,0,0,0,0,0,64,44,53,65,53,0,0,0,0,0,0,0,0,33,66,0,0,0,0,0,0,0,0,0,0,0,0,0,0,0,0,0,0,0,0,0,0,0,0,0,0,0,54,44,55,55,44,0,0,0,0,0,0,0,0,0,0,0,0,0,0,0,0,0,0,0,0,0,0,0,0,0,0,0,0,0,0,0,0,0,0,0,0,0,0,0,0,0,0,0,0,0,0,0,0,0,0,0,0,0,0,0,0,0,0,0,0,0,0,0,0,0,0,0,0,0,0,0,0,0,0,0,0,0,0,0,0,0,0,0,0,0,0,0,0,0,0,0,0,0,0,0,0,0,0,0,0,0,0,0,0,0,0,0,0,0,0,0,0,0,0,0,0,0,0,0,0,0,0,0,0,0,0,0,0,0,0,0,0,0,0,0,0,0,0,0,0,0,0,0,0,0,0,0,0,0,0,0,0,0,0,0,0,0,0,0,0,0,0,0,0,0,0,0,0,0,0,0,0,0,0,0,0,0,0,0,0,0,0,0,0,0,0,0,0,0,0,0,0,0,0,54,55,33,55,54,0,0,0,0,0,0,0,0,0,0,0,0,0,0,0,0,0,0,33,54,33,66,53,0,0,0,0,0,0,0,0,0,0,0,0,0,0,66,33,65,44,64,0,0,0,0,0,0,0,0,0,0,0,0,0,0,0,0,0,0,44,44,54,64,53,0,0,0,0,0,0,0,0,0,0,0,0,0,0,66,64,53,55,64,0,0,0,0,0,0,0,0,0,0,0,0,0,0,0,0,0,0,65,66,44,55,54,0,0,0,0,0,0,0,0,0,0,0,0,0,0,64,33,65,33,54,0,0,0,0,0,0,0,0,0,0,0,0,0,0,0,0,0,0,33,64,65,53,44,0,0,0,0,0,0,0,0,0,0,0,0,0,0,64,64,54,55,65,0,0,0,0,0,0,0,0,0,0,0,0,0,0,0,0,0,0,64,66,65,66,65,0,0,0,0,0,0,0,0,0,0,0,0,0,0,0,0,0,0,0,0,0,0,0,0,0,0,0,0,0,0,0,0,0,0,0,0,0,0,0,0,0,0,0,0,0,0,0,0,0,0,0,0,0,0,0,0,0,0,0,0,0,0,0,0,0,0,0,0,0,0,0,0,0,0,0,0,0,0,0,0,0,0,0,0,0,0,0,0,0,0,0,0,0,0,0,0,0,0,0,0,0,0,0,0,0,0,0,0,0,0,0,0,0,0,0,0,0,0,0,0,0,0,0,0,0,0,0,0,0,0,0,0,0,0,0,0,0,0,0,0,0,0,0,0,0,0,0,0,0,0,0,0,0,0,0,0,0,0,0,0,0,0,0,0,0,0,0,0,0,0,0,0,0,0,0,0,0,0,0,0,0,0,0,0,0,0,0,0,0,0,0,0,0,54,55,54,65,33,0,0,0,0,0,0,0,0,0,0,0,0,0,0,0,0,0,0,0,0,0,0,0,0,0,0,0,0,53,64,0,0,0,0,0,0,0,65,53,66,66,55,0,0,0,0,0,0,0,0,0,0,0,0,0,0,0,0,0,0,0,0,0,0,0,0,0,0,0,0,66,64,0,0,0,0,0,0,0,44,53,33,55,54,0,0,0,0,0,0,0,0,0,0,0,0,0,0,0,0,0,0,0,0,0,0,0,0,0,0,0,0,0,0,0,0,0,0,0,0,0,0,0,0,0,0,0,0,0,0,0,0,0,0,0,0,0,0,0,0,0,0,0,0,0,0,0,0,0,0,0,0,0,0,0,0,0,0,0,0,0,0,0,0,0,0,0,0,0,0,0,0,0,0,0,0,0,0,0,0,0,0,0,0,0,0,0,0,0,0,0,0,0,0,0,0,0,0,0,0,0,0,0,0,0,0,0,0,0,0,0,0,0,0,0,0,0,0,0,0,0,0,0,0,0,0,0,0,0,0,0,0,0,0,0,0,0,0,0,0,0,0,0,0,0,0,0,0,0,0,0,0,0,0,0,0,0,0,0,0,0,0,0,0,0,0,0,0,0,0,0,0,0,0,0,0,0,0,0,0,0,0,0,0,0,0,0,0,0,0,0,0,0,0,0,0,0,0,0,0,0,0,0,0,0,0,0,0,0,0,0,0,0,0,0,0,0,0,0,0,0,0,0,0,0,0,0,0,0,0,0,0,0,0,0,0,0,0,0,0,0,0,0,0,0,0,0,0,0,0,0,0,0,0,0,0,0,0,0,0,0,0,0,0,0,0,0,0,0,0,0,0,0,0,0,0,0,0,0,0,0,0,0,0,0,0,0,0,0,0,0,0,0,0,0,0,0</data></layer><layer id="4" name="Roof" width="42" height="32" opacity="1"><data encoding="csv">1,1073741859,1073741859,1073741859,1073741859,1073741859,1073741859,1073741859,1073741859,1073741859,1073741859,1073741859,1073741859,1073741859,1073741859,1073741859,1073741859,1073741859,1073741859,1073741859,1073741859,1073741859,1073741859,1073741859,1073741859,1073741859,1073741859,1073741859,1073741859,1073741859,1073741859,1073741859,1073741859,1073741859,1073741859,1073741859,1073741859,1073741859,1073741859,1073741859,1073741859,2147483649,1073741836,0,0,0,0,0,0,0,0,0,0,0,0,0,0,0,0,0,0,0,0,0,0,0,0,0,0,0,0,0,0,0,0,0,0,0,0,0,0,0,0,2147483671,1073741836,0,0,0,0,0,0,0,0,0,0,0,0,0,0,0,0,0,0,0,0,0,0,0,0,0,0,0,0,0,0,0,0,0,0,0,0,0,0,0,0,2147483660,1073741847,0,0,0,0,0,0,0,0,0,0,0,0,0,0,0,0,0,0,0,0,0,0,0,0,0,0,0,0,0,0,0,0,0,0,0,0,0,0,0,0,2147483660,1073741836,0,0,0,0,0,0,0,0,0,0,0,0,0,0,0,0,0,0,0,0,0,0,0,0,0,0,0,0,0,0,0,0,0,0,0,0,0,0,0,0,2147483660,1073741847,0,0,0,0,0,0,0,0,0,0,0,0,0,0,0,0,0,0,0,0,0,0,0,0,0,0,0,0,0,0,0,0,0,0,0,0,0,0,0,0,2147483671,1073741836,0,0,0,0,0,0,0,0,0,0,0,0,0,0,0,0,0,2147483684,35,35,35,36,0,0,0,0,0,0,0,0,2147483684,36,0,0,0,0,0,0,0,0,2147483671,1073741847,0,0,0,0,0,0,0,0,0,0,0,0,0,0,0,0,0,2147483671,0,0,0,23,0,0,0,0,0,0,0,0,3221225508,1073741860,0,0,0,0,0,0,0,0,2147483660,1073741836,0,0,0,0,0,0,0,0,0,0,0,0,0,0,0,0,0,3221225508,1073741859,1073741859,1073741859,1073741860,0,0,0,0,0,0,0,0,0,0,0,0,0,0,0,0,0,0,2147483671,1073741836,0,0,0,0,0,0,0,0,0,0,0,0,0,0,0,0,0,0,0,0,0,0,0,0,0,0,0,0,0,0,0,0,0,0,0,0,0,0,0,0,2147483671,1073741847,0,0,0,0,0,0,0,0,0,0,0,0,0,0,0,0,0,0,0,0,0,0,0,0,0,0,0,0,0,0,0,0,0,0,0,0,0,0,0,0,2147483671,1073741836,0,0,0,0,0,0,0,0,0,0,0,0,0,0,0,0,0,0,0,0,0,0,0,0,0,0,0,0,0,0,0,0,0,0,0,0,0,0,0,0,2147483660,1073741847,0,0,0,0,0,0,0,0,0,0,0,0,0,0,0,0,0,0,0,0,0,0,0,0,0,0,0,0,0,0,0,0,0,0,0,0,0,0,0,0,2147483671,1073741847,0,0,0,0,0,0,2147483684,35,35,35,36,0,0,0,0,0,0,0,0,0,0,0,0,0,0,0,0,0,0,2147483684,35,35,35,36,0,0,0,0,0,0,2147483660,1073741847,0,0,0,0,0,0,2147483660,0,0,0,12,0,0,0,0,0,0,0,0,0,0,0,0,0,0,0,0,0,0,2147483671,0,0,0,12,0,0,0,0,0,0,2147483660,1073741847,0,0,0,0,0,0,2147483660,0,0,0,12,0,0,0,0,0,0,0,0,0,0,0,0,0,0,0,0,0,0,2147483671,0,0,0,12,0,0,0,0,0,0,2147483671,1073741847,0,0,0,0,0,0,2147483660,0,0,0,12,0,0,0,0,0,0,0,0,0,0,0,0,0,0,0,0,0,0,2147483660,0,0,0,23,0,0,0,0,0,0,2147483671,1073741836,0,0,0,0,0,0,3221225508,1073741859,1073741859,1073741859,1073741860,0,0,0,0,0,0,0,0,0,0,0,0,0,0,0,0,0,0,3221225508,1073741859,1073741859,1073741859,1073741860,0,0,0,0,0,0,2147483660,1073741836,0,0,0,0,0,0,0,0,0,0,0,0,0,0,0,0,0,0,0,0,0,0,0,0,0,0,0,0,0,0,0,0,0,0,0,0,0,0,0,0,2147483671,1073741836,0,0,0,0,0,0,0,0,0,0,0,0,0,0,0,0,0,0,0,0,0,0,0,0,0,0,0,0,0,0,0,0,0,0,0,0,0,0,0,0,2147483660,1073741847,0,0,0,0,0,0,0,0,0,0,0,0,0,0,0,0,0,0,0,0,0,0,0,0,0,0,0,0,0,0,0,0,0,0,0,0,0,0,0,0,2147483671,1073741847,0,0,0,0,0,0,0,0,0,0,0,0,0,0,0,0,0,0,0,0,0,0,0,0,0,0,0,0,0,0,0,0,0,0,0,0,0,0,0,0,2147483660,1073741847,0,0,0,0,0,0,0,0,0,0,0,0,0,0,0,0,0,2147483684,35,35,35,36,0,0,0,0,0,0,0,0,0,0,0,0,0,0,0,0,0,0,2147483660,12,0,0,0,0,0,0,0,0,2147483684,36,0,0,0,0,0,0,0,2147483671,0,0,0,23,0,0,0,0,0,0,0,0,0,0,0,0,0,0,0,0,0,0,2147483660,12,0,0,0,0,0,0,0,0,3221225508,1073741860,0,0,0,0,0,0,0,3221225508,1073741859,1073741859,1073741859,1073741860,0,0,0,0,0,0,0,0,0,0,0,0,0,0,0,0,0,0,2147483660,23,0,0,0,0,0,0,0,0,0,0,0,0,0,0,0,0,0,0,0,0,0,0,0,0,0,0,0,0,0,0,0,0,0,0,0,0,0,0,0,0,2147483660,23,0,0,0,0,0,0,0,0,0,0,0,0,0,0,0,0,0,0,0,0,0,0,0,0,0,0,0,0,0,0,0,0,0,0,0,0,0,0,0,0,2147483671,12,0,0,0,0,0,0,0,0,0,0,0,0,0,0,0,0,0,0,0,0,0,0,0,0,0,0,0,0,0,0,0,0,0,0,0,0,0,0,0,0,2147483671,12,0,0,0,0,0,0,0,0,0,0,0,0,0,0,0,0,0,0,0,0,0,0,0,0,0,0,0,0,0,0,0,0,0,0,0,0,0,0,0,0,2147483660,12,0,0,0,0,0,0,0,0,0,0,0,0,0,0,0,0,0,0,0,0,0,0,0,0,0,0,0,0,0,0,0,0,0,0,0,0,0,0,0,0,2147483660,12,0,0,0,0,0,0,0,0,0,0,0,0,0,0,0,0,0,0,0,0,0,0,0,0,0,0,0,0,0,0,0,0,0,0,0,0,0,0,0,0,2147483660,1073741825,35,35,35,35,35,35,35,35,35,35,35,35,35,35,35,35,35,35,35,35,35,35,35,35,35,35,35,35,35,35,35,35,35,35,35,35,35,35,35,35,3221225473</data></layer><objectgroup id="5" name="Entities"><object name="Door" type="Door" x="0" y="480" width="32" height="32"><properties><property name="__anchorX" type="int" value="16"/><property name="__anchorY" type="int" value="496"/><property name="__cx" type="int" value="0"/><property name="__cy" type="int" value="15"/></properties></object><object name="Door" type="Door" x="1312" y="480" width="32" height="32"><properties><property name="__anchorX" type="int" value="1328"/><property name="__anchorY" type="int" value="496"/><property name="__cx" type="int" value="41"/><property name="__cy" type="int" value="15"/></properties></object><object name="Door" type="Door" x="640" y="0" width="32" height="32"><properties><property name="__anchorX" type="int" value="656"/><property name="__anchorY" type="int" value="16"/><property name="__cx" type="int" value="20"/><property name="__cy" type="int" value="0"/></properties></object><object name="Door" type="Door" x="640" y="992" width="32" height="32"><properties><property name="__anchorX" type="int" value="656"/><property name="__anchorY" type="int" value="1008"/><property name="__cx" type="int" value="20"/><property name="__cy" type="int" value="31"/></properties></object><object name="BossSpawner" type="BossSpawner" x="640" y="480" width="32" height="32"><properties><property name="__anchorX" type="int" value="640"/><property name="__anchorY" type="int" value="480"/><property name="__cx" type="int" value="20"/><property name="__cy" type="int" value="15"/></properties></object><object name="Spawner" type="Spawner" x="64" y="96" width="32" height="32"><properties><property name="__anchorX" type="int" value="64"/><property name="__anchorY" type="int" value="96"/><property name="__cx" type="int" value="2"/><property name="__cy" type="int" value="3"/></properties></object><object name="Spawner" type="Spawner" x="1248" y="96" width="32" height="32"><properties><property name="__anchorX" type="int" value="1248"/><property name="__anchorY" type="int" value="96"/><property name="__cx" type="int" value="39"/><property name="__cy" type="int" value="3"/></properties></object><object name="Spawner" type="Spawner" x="1248" y="928" width="32" height="32"><properties><property name="__anchorX" type="int" value="1248"/><property name="__anchorY" type="int" value="928"/><property name="__cx" type="int" value="39"/><property name="__cy" type="int" value="29"/></properties></object><object name="Spawner" type="Spawner" x="64" y="928" width="32" height="32"><properties><property name="__anchorX" type="int" value="64"/><property name="__anchorY" type="int" value="928"/><property name="__cx" type="int" value="2"/><property name="__cy" type="int" value="29"/></properties></object></objectgroup></map>