<map version="1.4" tiledversion="1.4.2" orientation="orthogonal" renderorder="right-down" compressionlevel="0" width="7" height="7" tilewidth="32" tileheight="32" infinite="0" backgroundcolor="#696A79" nextlayerid="5" nextobjectid="1"><tileset firstgid="1" name="Tileset_32" tilewidth="32" tileheight="32" tilecount="121" columns="11" objectalignment="topleft" margin="0" spacing="0"><image source="..\..\tileset_32.png" width="352" height="352"/></tileset><tileset firstgid="122" name="Collision" tilewidth="32" tileheight="32" tilecount="1" columns="1" objectalignment="topleft"><image source="Collision.intgrid.png" width="32" height="32"/></tileset><layer id="1" name="Collision" width="7" height="7" opacity="1"><data encoding="csv">122,122,122,122,122,122,122,122,0,0,0,0,0,122,122,0,0,0,0,0,122,122,0,0,0,0,0,122,122,0,0,0,0,0,122,122,0,0,0,0,0,122,122,122,122,122,122,122,122</data></layer><layer id="2" name="Floor" width="7" height="7" opacity="1"><data encoding="csv">0,0,0,0,0,0,0,0,13,13,13,13,13,0,0,67,68,68,68,69,0,0,67,69,68,68,67,0,0,68,67,69,68,68,0,0,68,67,68,68,69,0,0,0,0,0,0,0,0</data></layer><layer id="3" name="Roof" width="7" height="7" opacity="1"><data encoding="csv">1,1073741859,1073741859,1073741859,1073741859,2,2147483649,12,0,0,0,0,0,2147483671,23,0,0,0,0,0,2147483671,12,0,0,0,0,0,2147483671,23,0,0,0,0,0,2147483660,23,0,0,0,0,0,2147483671,1073741825,35,35,1073741826,35,35,3221225473</data></layer><objectgroup id="4" name="Entities"><object name="SideDoor" type="SideDoor" x="0" y="96" width="32" height="32"><properties><property name="__anchorX" type="int" value="0"/><property name="__anchorY" type="int" value="96"/><property name="__cx" type="int" value="0"/><property name="__cy" type="int" value="3"/></properties></object><object name="SideDoor" type="SideDoor" x="96" y="0" width="32" height="32"><properties><property name="__anchorX" type="int" value="96"/><property name="__anchorY" type="int" value="0"/><property name="__cx" type="int" value="3"/><property name="__cy" type="int" value="0"/></properties></object><object name="Spawner" type="Spawner" x="96" y="96" width="32" height="32"><properties><property name="__anchorX" type="int" value="96"/><property name="__anchorY" type="int" value="96"/><property name="__cx" type="int" value="3"/><property name="__cy" type="int" value="3"/></properties></object><object name="SideDoor" type="SideDoor" x="96" y="192" width="32" height="32"><properties><property name="__anchorX" type="int" value="96"/><property name="__anchorY" type="int" value="192"/><property name="__cx" type="int" value="3"/><property name="__cy" type="int" value="6"/></properties></object><object name="SideDoor" type="SideDoor" x="192" y="96" width="32" height="32"><properties><property name="__anchorX" type="int" value="192"/><property name="__anchorY" type="int" value="96"/><property name="__cx" type="int" value="6"/><property name="__cy" type="int" value="3"/></properties></object></objectgroup></map>