<map version="1.4" tiledversion="1.4.2" orientation="orthogonal" renderorder="right-down" compressionlevel="0" width="42" height="32" tilewidth="32" tileheight="32" infinite="0" backgroundcolor="#696A79" nextlayerid="5" nextobjectid="1"><tileset firstgid="1" name="Tileset_32" tilewidth="32" tileheight="32" tilecount="121" columns="11" objectalignment="topleft" margin="0" spacing="0"><image source="..\..\tileset_32.png" width="352" height="352"/></tileset><tileset firstgid="122" name="Collision" tilewidth="32" tileheight="32" tilecount="1" columns="1" objectalignment="topleft"><image source="Collision.intgrid.png" width="32" height="32"/></tileset><layer id="1" name="Collision" width="42" height="32" opacity="1"><data encoding="csv">122,122,122,122,122,122,122,122,122,122,122,122,122,122,122,122,122,122,122,122,122,122,122,122,122,122,122,122,122,122,122,122,122,122,122,122,122,122,122,122,122,122,122,0,0,0,0,0,0,0,0,0,0,0,0,0,0,0,0,0,0,0,0,0,0,0,0,0,0,0,0,0,0,0,0,0,0,0,0,0,0,0,0,122,122,0,0,0,0,0,0,0,0,0,0,0,0,0,0,0,0,0,0,0,0,0,0,0,0,0,0,0,0,0,0,0,0,0,0,0,0,0,0,0,0,122,122,0,0,0,0,0,0,0,0,0,0,0,0,0,0,0,0,0,0,0,0,0,0,0,0,0,0,0,0,0,0,0,0,0,0,0,0,0,0,0,0,122,122,0,0,0,0,0,0,0,0,0,0,0,0,0,0,0,0,0,0,0,0,0,0,0,0,0,0,0,0,0,0,0,0,0,0,0,0,0,0,0,0,122,122,0,0,0,0,0,0,0,0,0,0,0,0,0,0,0,0,0,0,0,0,0,0,0,0,0,0,0,0,0,0,0,0,0,0,0,0,0,0,0,0,122,122,0,0,0,0,0,0,0,0,0,0,0,0,0,0,0,0,0,0,0,0,0,0,0,0,0,0,0,0,0,0,0,0,0,0,0,0,0,0,0,0,122,122,0,0,0,0,0,0,0,0,0,0,0,0,0,0,0,0,0,0,0,0,0,0,0,0,0,0,0,0,0,0,0,0,0,0,0,0,0,0,0,0,122,122,0,0,0,0,0,0,0,0,0,0,0,0,0,0,0,0,0,0,0,0,0,0,0,0,0,0,0,0,0,0,0,0,0,0,0,0,0,0,0,0,122,122,0,0,0,0,0,0,0,0,0,0,0,0,0,0,0,0,0,0,0,0,0,0,0,0,0,0,0,0,0,0,0,0,0,0,0,0,0,0,0,0,122,122,0,0,0,0,0,0,0,0,0,0,0,0,0,0,0,0,0,0,0,0,0,0,0,0,0,0,0,0,0,0,0,0,0,0,0,0,0,0,0,0,122,122,0,0,0,0,0,0,0,0,0,0,0,0,0,0,0,0,0,0,0,0,0,0,0,0,0,0,0,0,0,0,0,0,0,0,0,0,0,0,0,0,122,122,0,0,0,0,0,0,0,0,0,0,0,0,0,0,0,0,0,0,0,0,0,0,0,0,0,0,0,0,0,0,0,0,0,0,0,0,0,0,0,0,122,122,0,0,0,0,0,0,0,0,0,0,0,0,0,0,0,0,0,0,0,0,0,0,0,0,0,0,0,0,0,0,0,0,0,0,0,0,0,0,0,0,122,122,0,0,0,0,0,0,0,0,0,0,0,0,0,0,0,0,0,0,0,0,0,0,0,0,0,0,0,0,0,0,0,0,0,0,0,0,0,0,0,0,122,122,0,0,0,0,0,0,0,0,0,0,0,0,0,0,0,0,0,0,0,0,0,0,0,0,0,0,0,0,0,0,0,0,0,0,0,0,0,0,0,0,122,122,0,0,0,0,0,0,0,0,0,0,0,0,0,0,0,0,0,0,0,0,0,0,0,0,0,0,0,0,0,0,0,0,0,0,0,0,0,0,0,0,122,122,0,0,0,0,0,0,0,0,0,0,0,0,0,0,0,0,0,0,0,0,0,0,0,0,0,0,0,0,0,0,0,0,0,0,0,0,0,0,0,0,122,122,0,0,0,0,0,0,0,0,0,0,0,0,0,0,0,0,0,0,0,0,0,0,0,0,0,0,0,0,0,0,0,0,0,0,0,0,0,0,0,0,122,122,0,0,0,0,0,0,0,0,0,0,0,0,0,0,0,0,0,0,0,0,0,0,0,0,0,0,0,0,0,0,0,0,0,0,0,0,0,0,0,0,122,122,0,0,0,0,0,0,0,0,0,0,0,0,0,0,0,0,0,0,0,0,0,0,0,0,0,0,0,0,0,0,0,0,0,0,0,0,0,0,0,0,122,122,0,0,0,0,0,0,0,0,0,0,0,0,0,0,0,0,0,0,0,0,0,0,0,0,0,0,0,0,0,0,0,0,0,0,0,0,0,0,0,0,122,122,0,0,0,0,0,0,0,0,0,0,0,0,0,0,0,0,0,0,0,0,0,0,0,0,0,0,0,0,0,0,0,0,0,0,0,0,0,0,0,0,122,122,0,0,0,0,0,0,0,0,0,0,0,0,0,0,0,0,0,0,0,0,0,0,0,0,0,0,0,0,0,0,0,0,0,0,0,0,0,0,0,0,122,122,0,0,0,0,0,0,0,0,0,0,0,0,0,0,0,0,0,0,0,0,0,0,0,0,0,0,0,0,0,0,0,0,0,0,0,0,0,0,0,0,122,122,0,0,0,0,0,0,0,0,0,0,0,0,0,0,0,0,0,0,0,0,0,0,0,0,0,0,0,0,0,0,0,0,0,0,0,0,0,0,0,0,122,122,0,0,0,0,0,0,0,0,0,0,0,0,0,0,0,0,0,0,0,0,0,0,0,0,0,0,0,0,0,0,0,0,0,0,0,0,0,0,0,0,122,122,0,0,0,0,0,0,0,0,0,0,0,0,0,0,0,0,0,0,0,0,0,0,0,0,0,0,0,0,0,0,0,0,0,0,0,0,0,0,0,0,122,122,0,0,0,0,0,0,0,0,0,0,0,0,0,0,0,0,0,0,0,0,0,0,0,0,0,0,0,0,0,0,0,0,0,0,0,0,0,0,0,0,122,122,0,0,0,0,0,0,0,0,0,0,0,0,0,0,0,0,0,0,0,0,0,0,0,0,0,0,0,0,0,0,0,0,0,0,0,0,0,0,0,0,122,122,0,0,0,0,0,0,0,0,0,0,0,0,0,0,0,0,0,0,0,0,0,0,0,0,0,0,0,0,0,0,0,0,0,0,0,0,0,0,0,0,122,122,122,122,122,122,122,122,122,122,122,122,122,122,122,122,122,122,122,122,122,122,122,122,122,122,122,122,122,122,122,122,122,122,122,122,122,122,122,122,122,122,122</data></layer><layer id="2" name="Floor" width="42" height="32" opacity="1"><data encoding="csv">11,0,0,0,0,0,0,0,0,0,0,0,0,0,0,0,0,0,0,0,0,0,0,0,0,0,0,0,0,0,0,0,0,0,0,0,0,0,0,0,0,0,11,13,13,13,13,13,13,13,13,13,13,13,13,13,13,13,13,13,13,13,13,13,13,13,13,13,13,13,13,13,13,13,13,13,13,13,13,13,13,13,13,0,11,69,68,67,67,68,67,67,67,68,67,69,68,67,69,69,68,67,68,67,69,69,69,68,68,68,68,69,69,67,67,67,68,68,68,69,68,68,68,69,69,0,11,67,68,67,68,68,69,67,68,68,68,67,69,69,69,68,69,67,69,68,69,68,68,69,69,69,69,69,69,69,68,67,69,67,68,67,69,67,69,69,69,0,11,67,68,67,69,67,68,69,69,69,67,68,67,69,68,68,67,67,68,67,68,69,68,68,67,67,67,69,67,68,68,67,68,68,69,68,69,68,67,68,68,0,11,69,69,67,69,67,67,69,67,67,68,68,68,68,69,67,67,67,68,68,68,69,67,69,69,67,69,68,69,67,68,69,67,67,67,68,68,68,68,67,69,0,11,67,67,69,69,68,69,69,69,69,67,68,67,69,68,67,68,68,67,69,69,67,68,67,67,68,68,67,69,67,68,67,69,69,68,69,69,68,69,69,68,0,11,67,69,67,68,69,67,69,69,69,69,68,68,69,69,68,67,69,69,68,68,69,69,67,68,68,69,68,68,68,69,69,68,67,68,67,68,69,67,68,69,0,11,69,68,69,69,68,67,68,68,67,67,67,68,68,69,69,67,67,68,68,67,68,69,68,69,69,67,68,69,68,68,67,69,68,68,69,67,67,67,67,67,0,11,67,68,67,68,69,69,69,67,67,67,67,68,68,69,69,68,68,68,68,69,67,67,69,68,68,69,68,68,67,69,67,67,68,69,67,69,69,68,67,69,0,11,69,67,68,68,68,69,69,69,68,68,67,68,69,67,69,68,67,68,69,67,67,67,67,67,69,67,67,69,69,68,67,69,67,69,67,67,68,67,69,68,0,11,69,68,68,69,67,67,67,67,67,67,67,68,69,67,69,67,68,67,69,69,69,69,69,67,67,67,67,67,68,67,69,67,67,69,67,69,67,67,68,69,0,11,67,67,67,67,67,68,69,69,69,67,69,69,68,69,68,68,67,68,69,68,68,67,67,68,67,69,69,69,69,67,69,67,69,69,69,68,67,69,69,68,0,11,69,68,67,68,69,69,68,67,69,69,68,69,69,67,69,68,67,69,68,68,68,68,68,68,69,69,68,67,67,67,69,68,69,68,68,67,69,67,68,67,0,11,69,67,69,68,67,67,69,67,68,69,68,68,67,68,69,69,68,68,67,67,67,69,68,68,68,69,68,67,69,68,69,69,69,69,69,69,67,68,69,67,0,11,69,69,68,67,68,68,67,67,69,68,67,69,67,68,69,67,68,69,69,69,69,69,67,67,69,68,67,67,69,67,69,69,68,67,67,67,67,69,69,69,0,11,67,67,67,69,68,68,67,68,69,69,68,68,67,69,68,68,67,69,69,69,67,67,68,68,69,67,69,67,68,68,69,67,69,68,68,67,69,68,69,67,0,11,67,68,67,69,67,67,69,69,68,68,69,67,69,68,67,68,68,67,69,69,69,67,67,69,68,69,67,67,69,69,67,69,68,68,68,69,68,67,68,68,0,11,69,68,68,67,67,67,67,68,69,69,69,67,68,67,69,67,67,67,67,67,67,67,68,68,68,67,68,69,68,67,67,67,68,69,69,68,68,69,68,68,0,11,67,68,68,69,69,69,69,67,68,67,68,67,68,67,68,67,68,69,69,68,68,68,67,68,69,67,68,67,67,67,69,69,67,69,69,67,67,69,67,67,0,11,69,67,68,68,68,68,68,68,68,69,68,68,68,68,68,67,69,68,69,69,69,67,69,69,69,68,69,69,67,69,67,67,68,67,69,67,68,69,68,68,0,11,68,69,69,68,67,69,69,68,68,67,67,67,69,67,68,68,68,69,68,68,69,68,67,68,68,68,69,69,69,69,67,69,69,67,68,68,68,69,68,69,0,11,69,68,67,68,69,68,69,68,68,68,69,68,67,68,67,68,68,68,67,68,68,68,67,69,67,69,69,68,69,67,67,67,67,67,68,68,69,67,68,69,0,11,67,69,68,68,69,68,69,68,68,67,68,67,68,69,68,67,67,67,67,67,68,67,67,67,69,69,67,68,67,67,68,68,67,69,69,69,69,68,67,67,0,11,67,69,68,67,67,69,68,67,67,69,67,68,67,69,68,67,67,67,67,67,67,69,68,69,67,69,68,68,67,68,68,67,67,69,69,67,67,67,67,69,0,11,67,68,69,69,67,69,68,68,69,69,69,67,67,69,67,68,67,67,68,68,67,68,68,69,68,67,68,69,67,67,69,69,69,68,68,67,67,69,68,67,0,11,68,69,69,67,67,68,68,69,69,67,67,69,69,69,67,67,68,69,69,67,69,69,67,68,69,67,68,67,69,67,69,69,68,67,67,68,68,67,67,67,0,11,67,67,67,68,68,67,68,67,67,68,67,69,69,67,68,67,69,68,68,68,69,68,67,69,69,68,68,69,68,68,67,69,68,67,69,69,68,67,67,68,0,11,68,68,67,69,68,69,68,67,69,68,68,68,69,68,67,68,67,69,69,68,69,68,68,68,67,67,68,68,68,67,69,67,68,69,68,67,69,69,67,67,0,11,69,69,67,67,69,69,67,69,69,67,68,68,68,67,67,68,69,69,67,68,67,67,68,69,69,67,68,69,68,69,68,68,67,69,69,68,68,69,67,68,0,11,69,68,67,67,69,68,69,69,67,67,68,67,67,67,68,69,69,69,67,67,68,69,69,69,69,68,67,68,69,68,67,68,69,69,69,68,69,69,67,69,0,11,0,0,0,0,0,0,0,0,0,0,0,0,0,0,0,0,0,0,0,0,0,0,0,0,0,0,0,0,0,0,0,0,0,0,0,0,0,0,0,0,0</data></layer><layer id="3" name="Roof" width="42" height="32" opacity="1"><data encoding="csv">1,1073741859,1073741859,1073741859,1073741859,1073741859,1073741859,1073741859,1073741859,1073741859,1073741859,1073741859,1073741859,1073741859,1073741859,1073741859,1073741859,1073741859,1073741859,1073741859,1073741859,1073741859,1073741859,1073741859,1073741859,1073741859,1073741859,1073741859,1073741859,1073741859,1073741859,1073741859,1073741859,1073741859,1073741859,1073741859,1073741859,1073741859,1073741859,1073741859,1073741859,2147483649,1073741836,0,0,0,0,0,0,0,0,0,0,0,0,0,0,0,0,0,0,0,0,0,0,0,0,0,0,0,0,0,0,0,0,0,0,0,0,0,0,0,0,2147483671,1073741836,0,0,0,0,0,0,0,0,0,0,0,0,0,0,0,0,0,0,0,0,0,0,0,0,0,0,0,0,0,0,0,0,0,0,0,0,0,0,0,0,2147483660,1073741847,0,0,0,0,0,0,0,0,0,0,0,0,0,0,0,0,0,0,0,0,0,0,0,0,0,0,0,0,0,0,0,0,0,0,0,0,0,0,0,0,2147483660,1073741836,0,0,0,0,0,0,0,0,0,0,0,0,0,0,0,0,0,0,0,0,0,0,0,0,0,0,0,0,0,0,0,0,0,0,0,0,0,0,0,0,2147483660,1073741847,0,0,0,0,0,0,0,0,0,0,0,0,0,0,0,0,0,0,0,0,0,0,0,0,0,0,0,0,0,0,0,0,0,0,0,0,0,0,0,0,2147483671,1073741836,0,0,0,0,0,0,0,0,0,0,0,0,0,0,0,0,0,0,0,0,0,0,0,0,0,0,0,0,0,0,0,0,0,0,0,0,0,0,0,0,2147483671,1073741847,0,0,0,0,0,0,0,0,0,0,0,0,0,0,0,0,0,0,0,0,0,0,0,0,0,0,0,0,0,0,0,0,0,0,0,0,0,0,0,0,2147483660,1073741836,0,0,0,0,0,0,0,0,0,0,0,0,0,0,0,0,0,0,0,0,0,0,0,0,0,0,0,0,0,0,0,0,0,0,0,0,0,0,0,0,2147483671,1073741836,0,0,0,0,0,0,0,0,0,0,0,0,0,0,0,0,0,0,0,0,0,0,0,0,0,0,0,0,0,0,0,0,0,0,0,0,0,0,0,0,2147483671,1073741847,0,0,0,0,0,0,0,0,0,0,0,0,0,0,0,0,0,0,0,0,0,0,0,0,0,0,0,0,0,0,0,0,0,0,0,0,0,0,0,0,2147483671,1073741836,0,0,0,0,0,0,0,0,0,0,0,0,0,0,0,0,0,0,0,0,0,0,0,0,0,0,0,0,0,0,0,0,0,0,0,0,0,0,0,0,2147483660,1073741847,0,0,0,0,0,0,0,0,0,0,0,0,0,0,0,0,0,0,0,0,0,0,0,0,0,0,0,0,0,0,0,0,0,0,0,0,0,0,0,0,2147483671,1073741847,0,0,0,0,0,0,0,0,0,0,0,0,0,0,0,0,0,0,0,0,0,0,0,0,0,0,0,0,0,0,0,0,0,0,0,0,0,0,0,0,2147483660,1073741847,0,0,0,0,0,0,0,0,0,0,0,0,0,0,0,0,0,0,0,0,0,0,0,0,0,0,0,0,0,0,0,0,0,0,0,0,0,0,0,0,2147483660,1073741847,0,0,0,0,0,0,0,0,0,0,0,0,0,0,0,0,0,0,0,0,0,0,0,0,0,0,0,0,0,0,0,0,0,0,0,0,0,0,0,0,2147483671,1073741847,0,0,0,0,0,0,0,0,0,0,0,0,0,0,0,0,0,0,0,0,0,0,0,0,0,0,0,0,0,0,0,0,0,0,0,0,0,0,0,0,2147483671,1073741836,0,0,0,0,0,0,0,0,0,0,0,0,0,0,0,0,0,0,0,0,0,0,0,0,0,0,0,0,0,0,0,0,0,0,0,0,0,0,0,0,2147483660,1073741836,0,0,0,0,0,0,0,0,0,0,0,0,0,0,0,0,0,0,0,0,0,0,0,0,0,0,0,0,0,0,0,0,0,0,0,0,0,0,0,0,2147483671,1073741836,0,0,0,0,0,0,0,0,0,0,0,0,0,0,0,0,0,0,0,0,0,0,0,0,0,0,0,0,0,0,0,0,0,0,0,0,0,0,0,0,2147483660,1073741847,0,0,0,0,0,0,0,0,0,0,0,0,0,0,0,0,0,0,0,0,0,0,0,0,0,0,0,0,0,0,0,0,0,0,0,0,0,0,0,0,2147483671,1073741847,0,0,0,0,0,0,0,0,0,0,0,0,0,0,0,0,0,0,0,0,0,0,0,0,0,0,0,0,0,0,0,0,0,0,0,0,0,0,0,0,2147483660,1073741847,0,0,0,0,0,0,0,0,0,0,0,0,0,0,0,0,0,0,0,0,0,0,0,0,0,0,0,0,0,0,0,0,0,0,0,0,0,0,0,0,2147483660,12,0,0,0,0,0,0,0,0,0,0,0,0,0,0,0,0,0,0,0,0,0,0,0,0,0,0,0,0,0,0,0,0,0,0,0,0,0,0,0,0,2147483660,12,0,0,0,0,0,0,0,0,0,0,0,0,0,0,0,0,0,0,0,0,0,0,0,0,0,0,0,0,0,0,0,0,0,0,0,0,0,0,0,0,2147483660,23,0,0,0,0,0,0,0,0,0,0,0,0,0,0,0,0,0,0,0,0,0,0,0,0,0,0,0,0,0,0,0,0,0,0,0,0,0,0,0,0,2147483660,23,0,0,0,0,0,0,0,0,0,0,0,0,0,0,0,0,0,0,0,0,0,0,0,0,0,0,0,0,0,0,0,0,0,0,0,0,0,0,0,0,2147483671,12,0,0,0,0,0,0,0,0,0,0,0,0,0,0,0,0,0,0,0,0,0,0,0,0,0,0,0,0,0,0,0,0,0,0,0,0,0,0,0,0,2147483671,12,0,0,0,0,0,0,0,0,0,0,0,0,0,0,0,0,0,0,0,0,0,0,0,0,0,0,0,0,0,0,0,0,0,0,0,0,0,0,0,0,2147483660,12,0,0,0,0,0,0,0,0,0,0,0,0,0,0,0,0,0,0,0,0,0,0,0,0,0,0,0,0,0,0,0,0,0,0,0,0,0,0,0,0,2147483660,12,0,0,0,0,0,0,0,0,0,0,0,0,0,0,0,0,0,0,0,0,0,0,0,0,0,0,0,0,0,0,0,0,0,0,0,0,0,0,0,0,2147483660,1073741825,35,35,35,35,35,35,35,35,35,35,35,35,35,35,35,35,35,35,35,35,35,35,35,35,35,35,35,35,35,35,35,35,35,35,35,35,35,35,35,35,3221225473</data></layer><objectgroup id="4" name="Entities"><object name="Door" type="Door" x="0" y="480" width="32" height="32"><properties><property name="__anchorX" type="int" value="16"/><property name="__anchorY" type="int" value="496"/><property name="__cx" type="int" value="0"/><property name="__cy" type="int" value="15"/></properties></object><object name="Door" type="Door" x="1312" y="480" width="32" height="32"><properties><property name="__anchorX" type="int" value="1328"/><property name="__anchorY" type="int" value="496"/><property name="__cx" type="int" value="41"/><property name="__cy" type="int" value="15"/></properties></object><object name="Door" type="Door" x="672" y="992" width="32" height="32"><properties><property name="__anchorX" type="int" value="688"/><property name="__anchorY" type="int" value="1008"/><property name="__cx" type="int" value="21"/><property name="__cy" type="int" value="31"/></properties></object><object name="Door" type="Door" x="640" y="0" width="32" height="32"><properties><property name="__anchorX" type="int" value="656"/><property name="__anchorY" type="int" value="16"/><property name="__cx" type="int" value="20"/><property name="__cy" type="int" value="0"/></properties></object><object name="Player" type="Player" x="192" y="832" width="32" height="32"><properties><property name="__anchorX" type="int" value="192"/><property name="__anchorY" type="int" value="832"/><property name="__cx" type="int" value="6"/><property name="__cy" type="int" value="26"/></properties></object><object name="Player" type="Player" x="1024" y="832" width="32" height="32"><properties><property name="__anchorX" type="int" value="1024"/><property name="__anchorY" type="int" value="832"/><property name="__cx" type="int" value="32"/><property name="__cy" type="int" value="26"/></properties></object><object name="Player" type="Player" x="608" y="832" width="32" height="32"><properties><property name="__anchorX" type="int" value="608"/><property name="__anchorY" type="int" value="832"/><property name="__cx" type="int" value="19"/><property name="__cy" type="int" value="26"/></properties></object><object name="Player" type="Player" x="160" y="160" width="32" height="32"><properties><property name="__anchorX" type="int" value="160"/><property name="__anchorY" type="int" value="160"/><property name="__cx" type="int" value="5"/><property name="__cy" type="int" value="5"/></properties></object><object name="Player" type="Player" x="640" y="160" width="32" height="32"><properties><property name="__anchorX" type="int" value="640"/><property name="__anchorY" type="int" value="160"/><property name="__cx" type="int" value="20"/><property name="__cy" type="int" value="5"/></properties></object><object name="Player" type="Player" x="1088" y="160" width="32" height="32"><properties><property name="__anchorX" type="int" value="1088"/><property name="__anchorY" type="int" value="160"/><property name="__cx" type="int" value="34"/><property name="__cy" type="int" value="5"/></properties></object></objectgroup></map>